X: 10063
T: MRS. DUFF'S RECOVERY STRATHSPEY
R: strathspey
B: K\"ohler's Violin Repository, v.1, 1885 p.6 #3
F: http://www.archive.org/details/klersviolinrepos01edin
Z: 2011 John Chambers <jc:trillian.mit.edu>
M: C
L: 1/8
P: Slowly if not danced
K: D
A, |\
D3A F<DA>F | E>DE<F B>ABc | d<fB<d A<dF<A | {F}E>D D/E/F/E/ D<B,B, :|
A |\
d>Adf d>Adf | d>f g/f/e/d/ f<ee>f | d>B AF D<gf>e | (d/c/)B/A/ (B/A/)G/F/ G<EE>c |
d>Adf d>Adf | d>f g/f/e/d/ f<ee>g | (g/f/)e/d/ (f/e/)d/c/ (d/c/)B/A/ (B/A/)G/F/ | (G/F/)E/D/ (D/E/)F/E/ D<B,B, |]

%%sep 2 1 500

